deepinesStore/resources/apps/duckietv.svg

<?xml version="1.0" encoding="UTF-8"?>
<svg xmlns="http://www.w3.org/2000/svg" xmlns:xlink="http://www.w3.org/1999/xlink" width="324px" height="234px" viewBox="0 0 324 234" version="1.1">
<defs>
<linearGradient id="linear0" gradientUnits="userSpaceOnUse" x1="2.263949" y1="23.952009" x2="45.629337" y2="23.952009" gradientTransform="matrix(1,0,0,1,-0.000000000000003553,0)">
<stop offset="0" style="stop-color:rgb(18.039216%,20.392157%,21.176471%);stop-opacity:1;"/>
<stop offset="1" style="stop-color:rgb(33.333334%,34.117648%,32.549021%);stop-opacity:1;"/>
</linearGradient>
<filter id="alpha" filterUnits="objectBoundingBox" x="0%" y="0%" width="100%" height="100%">
  <feColorMatrix type="matrix" in="SourceGraphic" values="0 0 0 0 1 0 0 0 0 1 0 0 0 0 1 0 0 0 1 0"/>
</filter>
<mask id="mask0">
  <g filter="url(#alpha)">
<rect x="0" y="0" width="324" height="234" style="fill:rgb(0%,0%,0%);fill-opacity:0.3;stroke:none;"/>
  </g>
</mask>
<image id="image9" width="324" height="234" xlink:href="data:image/png;base64,iVBORw0KGgoAAAANSUhEUgAAAUQAAADqCAYAAADaizzsAAAABmJLR0QA/wD/AP+gvaeTAAACWklEQVR4nO3ZMYrbUBCA4RlZ2mAcAqmMl5QuAjlHjmAfIeRsvkdOYZcpYnfGjYuVJ0WOIG1WaL/vAMPAg196vAgAAAAAAAAAAAAAAAAAAAAAAAAAAAAAAAAAAAAAAAAAAAAAAAAAAAAAAAAAAAAAAAAAAAAAAAAAAAAAAAAAAAAAAAAAAAAAAAAAAAAAAAAAAAAAAAAAAAAAAAAAAAAAAAAAAAAAAAAAAAAAAAAAAAAAAAAAAAAAAAAAAAAAAAAAAAAAAAAAAAAAAAAAAAAAAAAAAAAAAAAAAAAAAAAAAAAAAAAAAAAAAAAAAAAAAAAAAAAAAAAAAAAAAAAAAAAAAAAAAAAAAAAAAAAAAAAAAAAAAGAi8q0X4PVVVRMjnnVm9mPNgilp33oBXldVLW632+eu61YxQhSr6qWq/mTmywjrwaQI4oxVVXO9Xj91XfczIr5XxTKGRfEREZeI+HE4HC77/d6fIrMiiDPXNM0iovlSFd8i4mMMC2Kf2fy+3+9Pu91upA1hOgRx5jIzI6LNzK6quhgWxCYihs6AyRLE9+FRFY/4d+UddGWuqko5ZKYEceaq6pFZ14g4R8QtBl6Zq+qyXC49qDBLvvUzdzweP2w2m69t2z73fd9GLAZM66uq7qvV6ldE3DOzxtoTpkAQZ66q8nQ6PW2328X5fB583uv1+hFiyEwJ4jtQVaOesxgCAAAAAAAAAAAAAAAAAAAAAAAAAAAAAAAAAAAAAAAAAAAAAAAAAAAAAAAAAAAAAAAAAAAAAAAAAAAAAAAAAAAAAAAAAAAAAAD8B38BJ0hk3P6DKdoAAAAASUVORK5CYII="/>
<linearGradient id="linear1" gradientUnits="userSpaceOnUse" x1="12.491874" y1="38.637054" x2="19.86272" y2="38.637054" gradientTransform="matrix(3.775488,0,0,3.751338,71.835274,26.7187)">
<stop offset="0" style="stop-color:rgb(59.607846%,60.392159%,60.784316%);stop-opacity:1;"/>
<stop offset="1" style="stop-color:rgb(96.470588%,96.470588%,96.862745%);stop-opacity:1;"/>
</linearGradient>
<clipPath id="clip1">
  <path d="M 95 53 L 229 53 L 229 164 L 95 164 Z M 95 53 "/>
</clipPath>
<clipPath id="clip2">
  <path d="M 228.90625 108.046875 C 228.90625 57.28125 206.691406 53.050781 162.246094 53.050781 C 117.804688 53.050781 95.582031 57.28125 95.582031 108.046875 C 95.582031 158.816406 117.804688 163.042969 162.246094 163.042969 C 206.691406 163.042969 228.90625 158.816406 228.90625 108.046875 Z M 228.90625 108.046875 "/>
</clipPath>
<linearGradient id="linear2" gradientUnits="userSpaceOnUse" x1="7.080968" y1="22.036873" x2="40.812321" y2="22.036873" gradientTransform="matrix(3.952559,0,0,3.976321,67.595031,-90.915204)">
<stop offset="0" style="stop-color:rgb(73.725492%,70.588237%,63.137257%);stop-opacity:1;"/>
<stop offset="1" style="stop-color:rgb(77.254903%,74.901962%,67.843139%);stop-opacity:1;"/>
</linearGradient>
<mask id="mask1">
  <g filter="url(#alpha)">
<rect x="0" y="0" width="324" height="234" style="fill:rgb(0%,0%,0%);fill-opacity:0.3;stroke:none;"/>
  </g>
</mask>
<image id="image15" width="324" height="234" xlink:href="data:image/png;base64,iVBORw0KGgoAAAANSUhEUgAAAUQAAADqCAYAAADaizzsAAAABmJLR0QA/wD/AP+gvaeTAAACP0lEQVR4nO3Zv2oUYRSH4d/ZmXGRIEEELWxzWbaC17YXZGO6dNpssbDimDleguBsyDp5Hpj2cOCDd/4lAAAAAAAAAAAAAAAAAAAAAAAAAAAAAAAAAAAAAAAAAAAAAAAAAAAAAAAAAAAAAAAAAAAAAAAAAAAAAAAAAAAAAAAAAAAAAAAAAAAAAAAAAAAAAAAAAAAAAAAAAAAAAAAAAAAAAAAAAAAAAAAAAAAAAAAAAAAAAAAAAAAAAAAAAAAAAAAAAAAAAAAAAAAAAAAAAAAAAAAAAAAAAAAAAAAAAAAAAAAAAAAAAAAAAAAAAAAAAAAAAAAAAAAAAAAAAAAAAAAAAAAAAAAAAAAAAAAAAAAAAAAAAAAAAAAAAAAAbEo99wI8ve4ekgz39/erz/vu7q6TzFXV6zeD6yKIG9fd4/mcD+M4v5/neUimFdPmdPd8c3PzLclZFNkaQdyw7q7j8Xi737/+nORT0m+y7syXpL+P4/hlmqavVTVfaFW4CuNzL8DT2u12u+6+rcrHJLdZHcSMSV6tnANXSRBfhl1SQ9JD1oWskqydAVdLEF+GJenHJI9Z/4T4mMS3QzZJEDduWZalqo5JHqr62P3vQayqpbt/JPkVUWSDvPpsXHcPp9Pp3TRNb6tquMC83/v9/iHJT3+Zgf/O4XAYunvs7ukC19jdbqQAAAAAAAAAAAAAAAAAAAAAAAAAAAAAAAAAAAAAAAAAAAAAAAAAAAAAAAAAAAAAAAAAAAAAAAAAAAAAAADAX/0BVa2PIrlx9WYAAAAASUVORK5CYII="/>
<linearGradient id="linear3" gradientUnits="userSpaceOnUse" x1="12.491874" y1="38.637054" x2="19.86272" y2="38.637054" gradientTransform="matrix(3.775488,0,0,3.751338,71.948232,36.531527)">
<stop offset="0" style="stop-color:rgb(59.607846%,60.392159%,60.784316%);stop-opacity:1;"/>
<stop offset="1" style="stop-color:rgb(96.470588%,96.470588%,96.862745%);stop-opacity:1;"/>
</linearGradient>
<linearGradient id="linear4" gradientUnits="userSpaceOnUse" x1="18.355844" y1="24.303297" x2="29.516865" y2="24.303297" gradientTransform="matrix(-0.000000197667,-10.786752,15.179686,0,2786.500697,1532.131939)">
<stop offset="0" style="stop-color:rgb(41.176471%,41.176471%,41.176471%);stop-opacity:1;"/>
<stop offset="0.529132" style="stop-color:rgb(27.058825%,27.058825%,27.058825%);stop-opacity:1;"/>
<stop offset="1" style="stop-color:rgb(22.352941%,22.352941%,22.352941%);stop-opacity:1;"/>
</linearGradient>
<linearGradient id="linear5" gradientUnits="userSpaceOnUse" x1="18.882441" y1="24.260279" x2="30.08116" y2="24.260279" gradientTransform="matrix(4.041773,0,0,3.80287,62.340022,25.323943)">
<stop offset="0" style="stop-color:rgb(41.176471%,41.176471%,41.176471%);stop-opacity:1;"/>
<stop offset="0.529132" style="stop-color:rgb(27.058825%,27.058825%,27.058825%);stop-opacity:1;"/>
<stop offset="1" style="stop-color:rgb(22.352941%,22.352941%,22.352941%);stop-opacity:1;"/>
</linearGradient>
<linearGradient id="linear6" gradientUnits="userSpaceOnUse" x1="255.509995" y1="0" x2="264.079987" y2="0" gradientTransform="matrix(1.016202,0,0,-0.951098,-116.056943,-468.445121)">
<stop offset="0" style="stop-color:rgb(82.745099%,82.745099%,82.745099%);stop-opacity:1;"/>
<stop offset="1" style="stop-color:rgb(86.666667%,86.666667%,86.666667%);stop-opacity:1;"/>
</linearGradient>
<linearGradient id="linear7" gradientUnits="userSpaceOnUse" x1="282.459991" y1="0" x2="290.269989" y2="0" gradientTransform="matrix(1.016202,0,0,-0.951098,-116.056943,-468.445121)">
<stop offset="0" style="stop-color:rgb(82.745099%,82.745099%,82.745099%);stop-opacity:1;"/>
<stop offset="1" style="stop-color:rgb(86.666667%,86.666667%,86.666667%);stop-opacity:1;"/>
</linearGradient>
</defs>
<g id="surface1">
<rect x="0" y="0" width="324" height="234" style="fill:rgb(85.09804%,46.27451%,21.176471%);fill-opacity:1;stroke:none;"/>
<path style="fill:none;stroke-width:1.021703;stroke-linecap:butt;stroke-linejoin:miter;stroke:rgb(100%,100%,100%);stroke-opacity:1;stroke-miterlimit:4;" d="M -0.94401 -1.082899 L 181.217448 -1.082899 L 181.217448 130.605469 L -0.94401 130.605469 Z M -0.94401 -1.082899 " transform="matrix(1.8,0,0,1.8,0,0)"/>
<path style="fill-rule:nonzero;fill:url(#linear0);stroke-width:0.338593;stroke-linecap:square;stroke-linejoin:bevel;stroke:rgb(0%,0%,0%);stroke-opacity:0.078125;stroke-miterlimit:4;" d="M 19.487515 3.10828 L 28.208449 3.10828 C 42.486404 3.10828 45.459943 14.35531 45.459943 20.390657 L 45.459943 27.513117 C 45.459943 33.473491 42.684019 44.795494 27.148983 44.795494 L 20.034837 44.795494 C 8.165511 44.795494 2.433636 37.087827 2.433636 27.513117 L 2.433636 20.390657 C 2.433636 10.815947 8.048597 3.10828 19.487515 3.10828 Z M 19.487515 3.10828 " transform="matrix(3.775488,0,0,3.751338,71.835274,26.7187)"/>
<use xlink:href="#image9" mask="url(#mask0)"/>
<path style=" stroke:none;fill-rule:nonzero;fill:url(#linear1);" d="M 121.355469 169.09375 L 121.355469 173.714844 L 146.828125 173.714844 L 146.828125 169.09375 Z M 121.355469 169.09375 "/>
<g clip-path="url(#clip1)" clip-rule="nonzero">
<g clip-path="url(#clip2)" clip-rule="nonzero">
<path style=" stroke:none;fill-rule:nonzero;fill:url(#linear2);" d="M 228.90625 108.046875 C 228.90625 57.28125 206.691406 53.050781 162.246094 53.050781 C 117.804688 53.050781 95.582031 57.28125 95.582031 108.046875 C 95.582031 158.816406 117.804688 163.042969 162.246094 163.042969 C 206.691406 163.042969 228.90625 158.816406 228.90625 108.046875 Z M 228.90625 108.046875 "/>
</g>
</g>
<use xlink:href="#image15" mask="url(#mask1)"/>
<path style=" stroke:none;fill-rule:nonzero;fill:url(#linear3);" d="M 121.46875 178.90625 L 121.46875 183.527344 L 146.941406 183.527344 L 146.941406 178.90625 Z M 121.46875 178.90625 "/>
<path style=" stroke:none;fill-rule:nonzero;fill:rgb(50.196081%,50.196081%,50.196081%);fill-opacity:1;" d="M 196.246094 168.960938 L 206.085938 168.960938 L 206.085938 178.941406 L 196.246094 178.941406 Z M 196.246094 168.960938 "/>
<path style=" stroke:none;fill-rule:nonzero;fill:rgb(80.000001%,80.000001%,80.000001%);fill-opacity:1;" d="M 196.246094 168.960938 L 205.476562 168.960938 L 205.476562 178.359375 L 196.246094 178.359375 Z M 196.246094 168.960938 "/>
<path style=" stroke:none;fill-rule:nonzero;fill:rgb(27.843139%,43.921569%,50.196081%);fill-opacity:1;" d="M 197.625 170.679688 L 204.1875 170.679688 L 204.1875 176.613281 L 197.625 176.613281 Z M 197.625 170.679688 "/>
<path style=" stroke:none;fill-rule:nonzero;fill:url(#linear4);" d="M 142.351562 72.285156 C 141.070312 72.316406 140.511719 72.753906 139.703125 72.875 C 140.707031 72.960938 145.464844 75.113281 146.394531 75.242188 C 145.464844 75.832031 142.835938 75.21875 141.089844 75.953125 C 140.210938 76.324219 139.4375 77.765625 139.449219 78.433594 C 144.433594 77.960938 152.28125 78.40625 156.878906 80.324219 C 153.21875 80.714844 147.652344 81.15625 145.257812 82.335938 C 138.300781 85.765625 135.214844 93.757812 137.050781 103.378906 C 138.886719 112.960938 146.988281 147.96875 149.554688 159.648438 C 149.628906 159.96875 149.421875 162.585938 149.476562 162.902344 C 154.652344 164.25 160.335938 162.722656 165.96875 162.722656 C 169.933594 162.722656 173.835938 162.339844 177.589844 161.660156 C 175.039062 157.015625 172.277344 152.1875 170.765625 149.367188 C 166.738281 141.824219 162.738281 131.164062 164.578125 124.304688 C 164.910156 123.054688 161.078125 113.511719 162.179688 112.84375 C 170.730469 107.621094 172.902344 113.410156 176.324219 111.070312 C 178.089844 109.859375 180.511719 112.128906 181.125 110.121094 C 183.320312 102.925781 178.140625 90.429688 172.28125 84.945312 C 170.367188 83.160156 167.382812 81.992188 164.074219 81.394531 C 162.800781 79.765625 160.796875 78.230469 157.886719 76.785156 C 154.644531 75.167969 147.519531 72.964844 143.863281 72.410156 C 143.230469 72.3125 142.777344 72.28125 142.347656 72.292969 Z M 142.351562 72.285156 "/>
<path style=" stroke:none;fill-rule:nonzero;fill:url(#linear5);" d="M 146.273438 71.945312 C 144.664062 71.953125 143.046875 72.152344 141.472656 72.421875 C 142.480469 72.507812 144.839844 74.429688 145.769531 74.5625 C 144.367188 75.457031 140.691406 75.308594 140.714844 77.296875 C 145.710938 76.824219 151.144531 77.632812 155.746094 79.554688 C 152.085938 79.949219 148.671875 80.742188 146.273438 81.933594 C 139.308594 85.378906 137.496094 92.355469 139.324219 102.015625 C 141.160156 111.667969 149.148438 146.746094 151.707031 158.464844 C 151.949219 159.566406 152.019531 162.089844 152.085938 163.117188 C 156.539062 164.097656 161.207031 163.21875 165.980469 163.21875 C 170.890625 163.21875 176.503906 163.457031 181.074219 162.417969 C 178.316406 157.332031 174.679688 151.183594 173.054688 148.125 C 169.019531 140.539062 164.890625 129.945312 166.738281 123.050781 C 167.078125 121.796875 167.144531 116.601562 168.253906 115.917969 C 176.796875 110.667969 176.191406 115.777344 179.621094 113.425781 C 181.390625 112.210938 182.796875 110.6875 183.414062 108.671875 C 185.613281 101.429688 180.304688 88.871094 174.445312 83.359375 C 172.539062 81.5625 169.671875 80.390625 166.363281 79.792969 C 165.089844 78.148438 162.953125 76.609375 160.042969 75.15625 C 155.933594 73.101562 151.101562 71.929688 146.277344 71.945312 Z M 146.273438 71.945312 "/>
<path style=" stroke:none;fill-rule:nonzero;fill:rgb(26.274511%,50.980395%,55.686277%);fill-opacity:1;" d="M 151.203125 98.691406 C 149.074219 98.691406 147.351562 100.296875 147.351562 102.289062 C 147.351562 104.277344 149.074219 105.894531 151.203125 105.894531 C 153.332031 105.894531 155.058594 104.277344 155.058594 102.289062 C 155.058594 100.296875 153.328125 98.691406 151.203125 98.691406 Z M 152.910156 100.15625 C 153.464844 100.15625 153.90625 100.574219 153.90625 101.09375 C 153.90625 101.613281 153.460938 102.023438 152.910156 102.023438 C 152.363281 102.023438 151.917969 101.609375 151.917969 101.09375 C 151.917969 100.574219 152.363281 100.15625 152.910156 100.15625 Z M 152.910156 100.15625 "/>
<path style=" stroke:none;fill-rule:nonzero;fill:rgb(26.274511%,50.980395%,55.686277%);fill-opacity:1;" d="M 176.921875 97.0625 C 175.101562 97.0625 173.617188 98.441406 173.617188 100.148438 C 173.617188 101.859375 175.105469 103.242188 176.921875 103.242188 C 178.753906 103.242188 180.230469 101.859375 180.230469 100.148438 C 180.230469 98.441406 178.753906 97.0625 176.921875 97.0625 Z M 178.390625 98.308594 C 178.875 98.308594 179.242188 98.664062 179.242188 99.105469 C 179.242188 99.554688 178.875 99.914062 178.390625 99.914062 C 177.925781 99.914062 177.535156 99.554688 177.535156 99.105469 C 177.535156 98.667969 177.921875 98.308594 178.390625 98.308594 Z M 178.390625 98.308594 "/>
<path style=" stroke:none;fill-rule:nonzero;fill:url(#linear6);" d="M 152.296875 91.847656 C 152.296875 91.847656 149.394531 90.617188 146.578125 92.277344 C 143.765625 93.9375 143.863281 95.628906 143.863281 95.628906 C 143.863281 95.628906 142.371094 92.511719 146.359375 90.976562 C 150.351562 89.445312 152.296875 91.847656 152.296875 91.847656 Z M 152.296875 91.847656 "/>
<path style=" stroke:none;fill-rule:nonzero;fill:url(#linear7);" d="M 178.929688 91.617188 C 178.929688 91.617188 176.847656 90.5 175.230469 90.519531 C 171.90625 90.5625 171 91.933594 171 91.933594 C 171 91.933594 171.558594 88.660156 175.8125 89.316406 C 178.113281 89.675781 178.929688 91.617188 178.929688 91.617188 Z M 178.929688 91.617188 "/>
<path style=" stroke:none;fill-rule:nonzero;fill:rgb(99.215686%,82.352942%,3.921569%);fill-opacity:1;" d="M 162.984375 116.175781 C 163.367188 113.996094 169.382812 109.875 173.640625 109.625 C 177.910156 109.375 179.238281 109.425781 182.796875 108.632812 C 186.359375 107.835938 195.535156 105.695312 198.074219 104.597656 C 200.621094 103.496094 211.386719 105.140625 203.796875 109.101562 C 200.511719 110.824219 191.671875 113.980469 185.328125 115.746094 C 179.007812 117.519531 175.175781 114.058594 173.082031 116.964844 C 171.410156 119.277344 172.742188 122.445312 180.296875 123.101562 C 190.5 123.988281 200.277344 118.804688 201.351562 121.554688 C 202.433594 124.308594 192.585938 127.742188 186.589844 127.851562 C 180.605469 127.957031 168.527344 124.144531 166.722656 122.964844 C 164.90625 121.785156 162.488281 119.039062 162.992188 116.167969 Z M 162.984375 116.175781 "/>
</g>
</svg>

<svg xmlns="http://www.w3.org/2000/svg" width="324" height="234"><defs><linearGradient id="a" x1="2.264" x2="45.629" y1="23.952" y2="23.952" gradientUnits="userSpaceOnUse"><stop offset="0" stop-color="#2e3436"/><stop offset="1" stop-color="#555753"/></linearGradient><linearGradient id="b" x1="12.492" x2="19.863" y1="38.637" y2="38.637" gradientTransform="matrix(3.7755 0 0 3.7513 71.835 26.719)" gradientUnits="userSpaceOnUse"><stop offset="0" stop-color="#989a9b"/><stop offset="1" stop-color="#f6f6f7"/></linearGradient><linearGradient id="e" x1="7.081" x2="40.812" y1="22.037" y2="22.037" gradientTransform="matrix(3.9526 0 0 3.9763 67.595 -90.915)" gradientUnits="userSpaceOnUse"><stop offset="0" stop-color="#bcb4a1"/><stop offset="1" stop-color="#c5bfad"/></linearGradient><linearGradient id="f" x1="12.492" x2="19.863" y1="38.637" y2="38.637" gradientTransform="matrix(3.7755 0 0 3.7513 71.948 36.532)" gradientUnits="userSpaceOnUse"><stop offset="0" stop-color="#989a9b"/><stop offset="1" stop-color="#f6f6f7"/></linearGradient><linearGradient id="g" x1="18.356" x2="29.517" y1="24.303" y2="24.303" gradientTransform="matrix(0 -10.7868 15.1797 0 2786.5 1532.132)" gradientUnits="userSpaceOnUse"><stop offset="0" stop-color="#696969"/><stop offset=".529" stop-color="#454545"/><stop offset="1" stop-color="#393939"/></linearGradient><linearGradient id="h" x1="18.882" x2="30.081" y1="24.26" y2="24.26" gradientTransform="matrix(4.0418 0 0 3.8029 62.34 25.324)" gradientUnits="userSpaceOnUse"><stop offset="0" stop-color="#696969"/><stop offset=".529" stop-color="#454545"/><stop offset="1" stop-color="#393939"/></linearGradient><linearGradient id="i" x1="255.51" x2="264.08" y1="0" y2="0" gradientTransform="matrix(1.0162 0 0 -.9511 -116.057 -468.445)" gradientUnits="userSpaceOnUse"><stop offset="0" stop-color="#d3d3d3"/><stop offset="1" stop-color="#ddd"/></linearGradient><linearGradient id="j" x1="282.46" x2="290.27" y1="0" y2="0" gradientTransform="matrix(1.0162 0 0 -.9511 -116.057 -468.445)" gradientUnits="userSpaceOnUse"><stop offset="0" stop-color="#d3d3d3"/><stop offset="1" stop-color="#ddd"/></linearGradient><clipPath id="c"><path d="M95 53h134v111H95Zm0 0"/></clipPath><clipPath id="d"><path d="M228.906 108.047c0-50.766-22.215-54.996-66.66-54.996-44.441 0-66.664 4.23-66.664 54.996 0 50.77 22.223 54.996 66.664 54.996 44.445 0 66.66-4.227 66.66-54.996Zm0 0"/></clipPath></defs><path fill="#d97636" d="M0 0h324v234H0z"/><path fill="url(#a)" stroke="#000" stroke-linecap="square" stroke-linejoin="bevel" stroke-opacity=".078" stroke-width=".339" d="M19.488 3.108h8.72c14.278 0 17.252 11.247 17.252 17.283v7.122c0 5.96-2.776 17.282-18.311 17.282h-7.114c-11.87 0-17.601-7.707-17.601-17.282v-7.122c0-9.575 5.615-17.283 17.054-17.283Zm0 0" transform="matrix(3.7755 0 0 3.7513 71.835 26.719)"/><path fill="url(#b)" d="M121.355 169.094v4.62h25.473v-4.62Zm0 0"/><g clip-path="url(#c)"><g clip-path="url(#d)"><path fill="url(#e)" d="M228.906 108.047c0-50.766-22.215-54.996-66.66-54.996-44.441 0-66.664 4.23-66.664 54.996 0 50.77 22.223 54.996 66.664 54.996 44.445 0 66.66-4.227 66.66-54.996Zm0 0"/></g></g><path fill="url(#f)" d="M121.469 178.906v4.621h25.472v-4.62Zm0 0"/><path fill="gray" d="M196.246 168.96h9.84v9.981h-9.84Zm0 0"/><path fill="#ccc" d="M196.246 168.96h9.23v9.4h-9.23Zm0 0"/><path fill="#477080" d="M197.625 170.68h6.563v5.933h-6.563Zm0 0"/><path fill="url(#g)" d="M142.352 72.285c-1.282.031-1.84.469-2.649.59 1.004.086 5.762 2.238 6.692 2.367-.93.59-3.56-.023-5.305.711-.88.371-1.653 1.813-1.64 2.48 4.984-.472 12.831-.027 17.429 1.891-3.66.39-9.227.832-11.621 2.012-6.957 3.43-10.043 11.422-8.207 21.043 1.836 9.582 9.937 44.59 12.504 56.27.074.32-.133 2.937-.078 3.253 5.175 1.348 10.859-.18 16.492-.18 3.965 0 7.867-.382 11.62-1.062-2.55-4.644-5.312-9.472-6.823-12.293-4.028-7.543-8.028-18.203-6.188-25.062.332-1.25-3.5-10.793-2.398-11.461 8.55-5.223 10.722.566 14.144-1.774 1.766-1.21 4.188 1.059 4.801-.949 2.195-7.195-2.984-19.691-8.844-25.176-1.914-1.785-4.898-2.953-8.207-3.55-1.273-1.63-3.277-3.165-6.187-4.61-3.242-1.617-10.367-3.82-14.024-4.375-.633-.097-1.086-.129-1.515-.117Zm0 0"/><path fill="url(#h)" d="M146.273 71.945c-1.609.008-3.226.207-4.8.477 1.007.086 3.367 2.008 4.297 2.14-1.403.895-5.079.747-5.055 2.735 4.996-.473 10.43.336 15.031 2.258-3.66.394-7.074 1.187-9.473 2.379-6.964 3.445-8.777 10.421-6.949 20.082 1.836 9.652 9.824 44.73 12.383 56.449.242 1.101.313 3.625.379 4.652 4.453.98 9.121.102 13.894.102 4.91 0 10.524.238 15.094-.801-2.758-5.086-6.394-11.234-8.02-14.293-4.034-7.586-8.163-18.18-6.316-25.074.34-1.254.407-6.45 1.516-7.133 8.543-5.25 7.937-.14 11.367-2.492 1.77-1.215 3.176-2.739 3.793-4.754 2.2-7.242-3.11-19.8-8.969-25.313-1.906-1.796-4.773-2.968-8.082-3.566-1.273-1.645-3.41-3.184-6.32-4.637-4.11-2.054-8.941-3.226-13.766-3.21Zm0 0"/><path fill="#43828e" d="M151.203 98.691c-2.129 0-3.851 1.606-3.851 3.598 0 1.988 1.722 3.606 3.851 3.606s3.856-1.618 3.856-3.606c0-1.992-1.73-3.598-3.856-3.598Zm1.707 1.465c.555 0 .996.418.996.938s-.445.93-.996.93c-.547 0-.992-.415-.992-.93 0-.52.445-.938.992-.938ZM176.922 97.063c-1.82 0-3.305 1.378-3.305 3.085 0 1.711 1.488 3.094 3.305 3.094 1.832 0 3.308-1.383 3.308-3.094 0-1.707-1.476-3.085-3.308-3.085Zm1.469 1.246c.484 0 .851.355.851.796 0 .45-.367.81-.851.81-.465 0-.856-.36-.856-.81 0-.437.387-.796.856-.796Zm0 0"/><path fill="url(#i)" d="M152.297 91.848s-2.902-1.23-5.719.43c-2.812 1.66-2.715 3.35-2.715 3.35s-1.492-3.116 2.496-4.651c3.993-1.532 5.938.87 5.938.87Zm0 0"/><path fill="url(#j)" d="M178.93 91.617s-2.082-1.117-3.7-1.097c-3.324.043-4.23 1.414-4.23 1.414s.559-3.274 4.813-2.618c2.3.36 3.117 2.301 3.117 2.301Zm0 0"/><path fill="#fdd20a" d="M162.984 116.176c.383-2.18 6.399-6.301 10.657-6.551 4.27-.25 5.597-.2 9.156-.992 3.562-.797 12.738-2.938 15.277-4.035 2.547-1.102 13.313.543 5.723 4.504-3.285 1.722-12.125 4.878-18.469 6.644-6.32 1.774-10.152-1.687-12.246 1.219-1.672 2.312-.34 5.48 7.215 6.137 10.203.886 19.98-4.297 21.055-1.547 1.082 2.754-8.766 6.187-14.762 6.297-5.985.105-18.063-3.707-19.867-4.887-1.817-1.18-4.235-3.926-3.73-6.797Zm0 0"/></svg>
